_includes/icons/ios-twitter-circled.svg

<svg fill="#666" height="50" viewBox="0 0 50 50" width="50" xmlns="http://www.w3.org/2000/svg"><path d="m25 2c-12.690705 0-23 10.309295-23 23s10.309295 23 23 23 23-10.309295 23-23-10.309295-23-23-23zm0 2c11.609824 0 21 9.390176 21 21s-9.390176 21-21 21-21-9.390176-21-21 9.390176-21 21-21zm5.693359 10.058594c-3.600305 0-6.541015 2.939581-6.541015 6.539062 0 .0253.007512.048959.007812.074219-3.814085-.507567-7.188078-2.390532-9.505859-5.232422a1.0001 1.0001 0 0 0 -1.638672.128906c-.562891.967654-.884766 2.095409-.884766 3.289063 0 1.062175.295902 2.048899.748047 2.939453a1.0001 1.0001 0 0 0 -.792968.976563v.070312c0 1.934033.905025 3.609039 2.246093 4.808594a1.0001 1.0001 0 0 0 -.259765 1.02539c.558438 1.736926 1.860144 3.096745 3.490234 3.863282-1.304092.609978-2.701413 1.046875-4.242188 1.046875-.410797 0-.810125-.023353-1.201171-.070313a1.0001 1.0001 0 0 0 -.658203 1.835938c2.604467 1.671101 5.705857 2.646484 9.029296 2.646484 5.370648 0 9.615673-2.256126 12.453125-5.474609 2.837453-3.218484 4.310547-7.372308 4.310547-11.285157 0-.11751-.005412-.229944-.007812-.345703.973839-.781791 1.889733-1.644087 2.583984-2.683593a1.0001 1.0001 0 0 0 -1.125-1.511719c.161627-.314579.390413-.587691.5-.929688a1.0001 1.0001 0 0 0 -1.460937-1.166015c-.87459.518215-1.857296.859867-2.875 1.097656-1.143369-.974154-2.563851-1.642578-4.175782-1.642578zm0 2c1.312188 0 2.484962.548387 3.3125 1.43164a1.0001 1.0001 0 0 0 .921875.298828c.151915-.029879.273948-.126619.423828-.162109-.018599.01151-.030048.031719-.048828.042969a1.0001 1.0001 0 0 0 .529297 1.857422c-.06869.05238-.109696.134979-.179687.185547a1.0001 1.0001 0 0 0 -.414063.853515c.0095.224254.015625.449426.015625.673828 0 3.405151-1.314249 7.131375-3.810547 9.962891-2.4963 2.831515-6.134772 4.796875-10.953125 4.796875-1.653188 0-3.208534-.330313-4.689453-.832031 1.842262-.390349 3.586463-1.042766 5.015625-2.164063a1.0001 1.0001 0 0 0 -.597656-1.785156c-1.415651-.02571-2.505943-.826405-3.320312-1.859375.299177-.03871.608611-.0401.894531-.119141a1.0001 1.0001 0 0 0 -.06836-1.945312c-1.65141-.333282-2.939613-1.571893-3.412109-3.173828.4253.102354.797945.331281 1.25.345703a1.0001 1.0001 0 0 0 .587891-1.830078c-1.219737-.815617-2.019532-2.19701-2.019532-3.779297 0-.326999.17547-.5869.240235-.892578 2.840497 2.811859 6.620736 4.678056 10.876953 4.892578a1.0001 1.0001 0 0 0 1.023437-1.228516c-.07783-.329146-.11914-.672519-.11914-1.03125 0-2.518518 2.02132-4.539062 4.541015-4.539062z"/></svg>

<svg xmlns="http://www.w3.org/2000/svg" viewBox="0 0 50 50" width="50" height="50" fill="#666"><path style="line-height:normal;text-indent:0;text-align:start;text-decoration-line:none;text-decoration-style:solid;text-decoration-color:#000;text-transform:none;block-progression:tb;isolation:auto;mix-blend-mode:normal" d="M 25 2 C 12.309295 2 2 12.309295 2 25 C 2 37.690705 12.309295 48 25 48 C 37.690705 48 48 37.690705 48 25 C 48 12.309295 37.690705 2 25 2 z M 25 4 C 36.609824 4 46 13.390176 46 25 C 46 36.609824 36.609824 46 25 46 C 13.390176 46 4 36.609824 4 25 C 4 13.390176 13.390176 4 25 4 z M 30.693359 14.058594 C 27.093054 14.058594 24.152344 16.998175 24.152344 20.597656 C 24.152344 20.622956 24.159856 20.646615 24.160156 20.671875 C 20.346071 20.164308 16.972078 18.281343 14.654297 15.439453 A 1.0001 1.0001 0 0 0 13.015625 15.568359 C 12.452734 16.536013 12.130859 17.663768 12.130859 18.857422 C 12.130859 19.919597 12.426761 20.906321 12.878906 21.796875 A 1.0001 1.0001 0 0 0 12.085938 22.773438 L 12.085938 22.84375 C 12.085938 24.777783 12.990963 26.452789 14.332031 27.652344 A 1.0001 1.0001 0 0 0 14.072266 28.677734 C 14.630704 30.41466 15.93241 31.774479 17.5625 32.541016 C 16.258408 33.150994 14.861087 33.587891 13.320312 33.587891 C 12.909515 33.587891 12.510187 33.564538 12.119141 33.517578 A 1.0001 1.0001 0 0 0 11.460938 35.353516 C 14.065405 37.024617 17.166795 38 20.490234 38 C 25.860882 38 30.105907 35.743874 32.943359 32.525391 C 35.780812 29.306907 37.253906 25.153083 37.253906 21.240234 C 37.253906 21.122724 37.248494 21.01029 37.246094 20.894531 C 38.219933 20.11274 39.135827 19.250444 39.830078 18.210938 A 1.0001 1.0001 0 0 0 38.705078 16.699219 C 38.866705 16.38464 39.095491 16.111528 39.205078 15.769531 A 1.0001 1.0001 0 0 0 37.744141 14.603516 C 36.869551 15.121731 35.886845 15.463383 34.869141 15.701172 C 33.725772 14.727018 32.30529 14.058594 30.693359 14.058594 z M 30.693359 16.058594 C 32.005547 16.058594 33.178321 16.606981 34.005859 17.490234 A 1.0001 1.0001 0 0 0 34.927734 17.789062 C 35.079649 17.759183 35.201682 17.662443 35.351562 17.626953 C 35.332963 17.638463 35.321514 17.658672 35.302734 17.669922 A 1.0001 1.0001 0 0 0 35.832031 19.527344 C 35.763341 19.579724 35.722335 19.662323 35.652344 19.712891 A 1.0001 1.0001 0 0 0 35.238281 20.566406 C 35.247781 20.79066 35.253906 21.015832 35.253906 21.240234 C 35.253906 24.645385 33.939657 28.371609 31.443359 31.203125 C 28.947059 34.03464 25.308587 36 20.490234 36 C 18.837046 36 17.2817 35.669687 15.800781 35.167969 C 17.643043 34.77762 19.387244 34.125203 20.816406 33.003906 A 1.0001 1.0001 0 0 0 20.21875 31.21875 C 18.803099 31.19304 17.712807 30.392345 16.898438 29.359375 C 17.197615 29.320665 17.507049 29.319275 17.792969 29.240234 A 1.0001 1.0001 0 0 0 17.724609 27.294922 C 16.073199 26.96164 14.784996 25.723029 14.3125 24.121094 C 14.7378 24.223448 15.110445 24.452375 15.5625 24.466797 A 1.0001 1.0001 0 0 0 16.150391 22.636719 C 14.930654 21.821102 14.130859 20.439709 14.130859 18.857422 C 14.130859 18.530423 14.306329 18.270522 14.371094 17.964844 C 17.211591 20.776703 20.99183 22.6429 25.248047 22.857422 A 1.0001 1.0001 0 0 0 26.271484 21.628906 C 26.193654 21.29976 26.152344 20.956387 26.152344 20.597656 C 26.152344 18.079138 28.173664 16.058594 30.693359 16.058594 z"/></svg>
